src/assets/images/Noite.svg

<svg width="18" height="18" viewBox="0 0 18 18" fill="none" xmlns="http://www.w3.org/2000/svg">
<path d="M17.958 12.3251C18.162 11.8391 17.579 11.4251 17.09 11.6411C16.1124 12.0697 15.0564 12.2903 13.989 12.2891C9.804 12.2891 6.412 8.96506 6.412 4.86406C6.41157 3.47956 6.80487 2.12349 7.546 0.954059C7.83 0.506059 7.489 -0.113941 6.969 0.0180591C2.96 1.04106 0 4.61306 0 8.86206C0 13.9091 4.175 18.0001 9.326 18.0001C13.226 18.0001 16.566 15.6551 17.958 12.3251Z" fill="#004990"/>
<path d="M12.611 0.103038C12.081 -0.250962 11.449 0.381038 11.802 0.911038L12.432 1.85604C12.6878 2.2391 12.8244 2.6894 12.8244 3.15004C12.8244 3.61067 12.6878 4.06097 12.432 4.44404L11.802 5.38904C11.449 5.91904 12.082 6.55104 12.612 6.19704L13.556 5.56704C13.9391 5.31122 14.3894 5.17468 14.85 5.17468C15.3106 5.17468 15.7609 5.31122 16.144 5.56704L17.089 6.19704C17.619 6.55104 18.251 5.91904 17.897 5.38904L17.267 4.44404C17.0112 4.06097 16.8747 3.61067 16.8747 3.15004C16.8747 2.6894 17.0112 2.2391 17.267 1.85604L17.897 0.911038C18.251 0.381038 17.619 -0.250962 17.088 0.103038L16.144 0.733038C15.7609 0.988858 15.3106 1.12539 14.85 1.12539C14.3894 1.12539 13.9391 0.988858 13.556 0.733038L12.611 0.103038Z" fill="#004990"/>
</svg>

<svg xmlns="http://www.w3.org/2000/svg" width="18" height="18" fill="none" viewBox="0 0 18 18"><path fill="#004990" d="M17.958 12.325c.204-.486-.379-.9-.868-.684a7.7 7.7 0 0 1-3.101.648c-4.185 0-7.577-3.324-7.577-7.425A7.3 7.3 0 0 1 7.546.954C7.83.506 7.489-.114 6.969.018 2.96 1.041 0 4.613 0 8.862 0 13.91 4.175 18 9.326 18c3.9 0 7.24-2.345 8.632-5.675"/><path fill="#004990" d="M12.611.103c-.53-.354-1.162.278-.809.808l.63.945a2.33 2.33 0 0 1 0 2.588l-.63.945c-.353.53.28 1.162.81.808l.944-.63a2.33 2.33 0 0 1 2.588 0l.945.63c.53.354 1.162-.278.808-.808l-.63-.945a2.33 2.33 0 0 1 0-2.588l.63-.945c.354-.53-.278-1.162-.809-.808l-.944.63a2.33 2.33 0 0 1-2.588 0z"/></svg>
